img/creator-iphone-plus-fill-3 1.svg

<svg height="18" viewBox="0 0 17 18" width="17" xmlns="http://www.w3.org/2000/svg"><path d="m16.2918438 0h-15.5831563c-.39153125 0-.7086875.3358125-.7086875.7498125v16.500375c0 .414.31715625.7498125.7086875.7498125h8.3225625v-6.75h-2.125v-2.8125h2.125v-2.25c0-2.3248125 1.3902813-3.4689375 3.349-3.4689375.9381875 0 1.744625.07425 1.9794375.106875v2.43l-1.3584062.0005625c-1.0651563 0-1.3137813.5360625-1.3137813 1.3224375v1.8590625h2.65625l-.53125 2.8125h-2.125l.0425 6.75h4.5618438c.391 0 .7081562-.3358125.7081562-.7498125v-16.500375c0-.414-.3171562-.7498125-.7081562-.7498125" fill="#9b9b9b" fill-rule="evenodd"/></svg>

<?xml version="1.0" encoding="UTF-8"?>
<svg width="17px" height="18px" viewBox="0 0 17 18" version="1.1" xmlns="http://www.w3.org/2000/svg" xmlns:xlink="http://www.w3.org/1999/xlink">
    <!-- Generator: Sketch 50.2 (55047) - http://www.bohemiancoding.com/sketch -->
    <desc>Created with Sketch.</desc>
    <defs></defs>
    <g id="Page-1" stroke="none" stroke-width="1" fill="none" fill-rule="evenodd">
        <path d="M16.2918438,0 L0.7086875,0 C0.31715625,0 0,0.3358125 0,0.7498125 L0,17.2501875 C0,17.6641875 0.31715625,18 0.7086875,18 L9.03125,18 L9.03125,11.25 L6.90625,11.25 L6.90625,8.4375 L9.03125,8.4375 L9.03125,6.1875 C9.03125,3.8626875 10.4215313,2.7185625 12.38025,2.7185625 C13.3184375,2.7185625 14.124875,2.7928125 14.3596875,2.8254375 L14.3596875,5.2554375 L13.0012813,5.256 C11.936125,5.256 11.6875,5.7920625 11.6875,6.5784375 L11.6875,8.4375 L14.34375,8.4375 L13.8125,11.25 L11.6875,11.25 L11.73,18 L16.2918438,18 C16.6828438,18 17,17.6641875 17,17.2501875 L17,0.7498125 C17,0.3358125 16.6828438,0 16.2918438,0" id="Fill-3" fill="#9B9B9B"></path>
    </g>
</svg>
